X:1410
T:Da Forfeit o' da Ship
O:England
M:C
L:1/8
S:Alasdair Fraser
K:D
AB|d2 dB dA F2|ABAF EDEF|A2 AF ABde|f2 ed B2:|
AB|d2 fd adfd|edfd eAAf|a3 e fdef|dBAF E2:|


